X:1
T:Again He’ll Come
T:Again He’ll Come
T:William Marion Runyan
T:William Marion Runyan, 1919
T:Public Domain Courtesy of the Cyber Hymnal™
T:Public Domain Courtesy of the Cyber Hymnal™
C:William Marion Runyan
Z:Public Domain
Z:Courtesy of the Cyber Hymnal™
%%score ( 1 2 ) ( 3 4 )
L:1/8
Q:1/4=110
M:4/4
K:Bb
V:1 treble 
V:2 treble 
V:3 bass 
V:4 bass 
V:1
 [DF] | [DF]2 [DB]2 [DB]3 [Ec] | [Fd]>[Ec] [DB][DF] [EG] [EG]2 [EG] | [Gc]2 [Gd]2 [Ge]3 [EG] | %4
w: 1.~From|Ol- ive’s hill, the|mul- ti- tude up- gaz- ing, Be-|held, un- til the|
w: 2.~A-|gain, but not in|weak- ness or in sor- row; A-|gain, but not for|
w: 3.~O|Zi- on, clothe thy-|self in rai- ment ho- ly; Lift|up thine eyes to|
 [EA][EG] [EG]>[EA] [DF]3 [DF] | [FB]2 [Fc]2 [Fd]3 [Fd] | [Fd][_AB][Ac][Ad] [Ge] [EG]2 [EB] | %7
w: Sav- ior passed from view; But|ra- diant her- alds|ut- tered words of prom- ise, He|
w: bit- ter pain and loss; The|Son of God shall|come in glo- ry splen- did, A-|
w: greet thy com- ing king; Re-|joice, re- joice, no|more be robed in sor- row, Re-|
 [=EB]3 [EB] [Fd]3 [FB] |"^riten." [EB][EA][EG][EA] !fermata![DB]3 ||"^Refrain" [Fd] | %10
w: who has gone shall|come a- gain to you.||
w: gain, but not to|bear shame’s bit- ter cross.|A-|
w: joice, O Zi- on,|lift thy voice and sing.||
 [Fd]3 [DF] [DF]3 [DF] | [FB]>[FB] [Fc][FB] [EB] [EA]2 [Fe] | [Fe]3 [EA] [EA]3 [EG] | %13
w: |||
w: gain, a- gain, the|na- tions shall be- hold Him! A-|gain, a- gain, en-|
w: |||
 [EF][EA][Fc][F^c] [Fd]3 [Fd] | [Fd]3 [DF] [DF]3 [DF] | [FB]>[FB] [Fc]d [Ge] [Ge]2 [Be] | %16
w: |||
w: robed in ma- jes- ty; In|clouds of glo- ry|ev- ery eye shall see Him, A-|
w: |||
 [B=e]3 [Be] !fermata![Bf]3 [FB] | !>![Fd]!>![Bd]!fermata![Ae][FA] !fermata![FB]3 |] %18
w: ||
w: gain, a- gain, the|King of Glo- ry see!|
w: ||
V:2
 x | x8 | x8 | x8 | x8 | x8 | x8 | x8 | x7 || x | x8 | x8 | x8 | x8 | x8 | x3 (F/_A/) x4 | x8 | %17
 x7 |] %18
V:3
 [B,,B,] | [B,,B,]2 [B,,F,]2 [B,,F,]3 [B,,F,] | %2
 [B,,B,]>[B,,B,] [B,,F,][B,,B,] [E,B,] [E,B,]2 [E,B,] | [E,B,]2 [D,=B,]2 [C,C]3 [C,C] | %4
 [F,C][F,C] [F,A,]>[F,A,] [B,,B,]3 [B,,B,] | [D,B,]2 [C,A,]2 [B,,B,]3 [B,,B,] | %6
 B,[B,D][_A,D][F,B,] [E,B,] [E,B,]2 [G,B,] | [_G,B,]3 [G,B,] [F,B,]3 [F,D] | %8
 [F,C][F,C][F,A,]F, !fermata![B,,F,]3 || [B,,B,] | [B,,B,]3 [B,,B,] [B,,B,]3 [B,,B,] | %11
 [D,B,]>[D,B,] [D,B,][D,B,] [C,F,] [C,F,]2 [F,A,] | [F,A,]3 [F,C] [F,C]3 [F,B,] | %13
 [F,A,]F,[F,A,][F,A,] [B,,B,]3 [B,,B,] | [B,,B,]3 [B,,B,] [B,,B,]3 [B,,B,] | %15
 [D,B,]>[D,B,] [C,A,][B,,B,] [E,B,] [E,B,]2 [G,C] | [_G,^C]3 [G,C] [F,D]3 [F,D] | %17
 !>![F,B,]!>![F,B,]!>![F,C][F,E] [B,,D]2 x |] %18
V:4
 x | x8 | x8 | x8 | x8 | x8 | B, x7 | x8 | x3 F, x3 || x | x8 | x8 | x8 | x F, x6 | x8 | x8 | x8 | %17
 x7 |] %18

